X:1
T:Title
%%score { 1 | ( 2 3 ) }
L:1/8
M:4/4
K:G
V:1 treble nm="Grand Piano"
V:2 treble 
V:3 treble 
V:1
 z4 z2[Q:1/4=100] GA | B2 G2 G2 BB | [EA][EG][DF][CE] [B,D]2 [DG][DF] | %3
 [CE]2 [Ec]2 [Ec]2 [EB][EA] |[M:9/8] GGF G [FA]2- [FA]GA |[M:4/4] B2 G2 G2 BB | %6
 [EA][EG][DF][CE] [B,D]2 [DG][DF] | [CE]2 [Ec]2 [DB]2 [DG][GB] | %8
[M:7/8] [FB][CFA][B,DG] [A,DF] [B,DG]3 |[M:1/4] B>c |[M:4/4] d2 B2 B2 de | %11
 [Gd][Fc] [Fc]>[=FB] [^Fc]4 | [Fc][Ac] [Ac]>[GB] [FA]4 |[M:9/8] BBB- B/c/ d2- dB>c | %14
[M:4/4] d2 B2 B2 GB | [EA][EG][DF][CE] [B,D]2 [DG]>[DF] | [CE]2 [Ec][Ec] [DB]2 .[CEA]2 | %17
[M:3/4] [B,G]6 |] %18
V:2
 z4 z2 [G,B,D][G,CD] | [G,DG]2 [G,B,D]2 [G,B,D]2[K:bass] [G,D][G,D] | %2
 [C,G,][C,G,][C,G,][C,G,] [G,,G,]2 [B,,G,][B,,G,] | [C,G,]2 [C,G,]2 [C,G,]2 [C,G,][C,C] | %4
[M:9/8] [D,B,D][D,B,D][D,A,D] [D,B,D] [D,C]2- [D,C][K:treble][G,B,D][G,CD] | %5
[M:4/4] [G,DG]2 [G,B,D]2 [G,B,D]2[K:bass] [G,D][G,D] | %6
 [C,G,][C,G,][C,G,][C,G,] [G,,G,]2 [B,,G,][B,,G,] | [C,G,]2 [C,G,]2 [D,G,]2 [D,B,][D,D] | %8
[M:7/8] [D,D]D,D, D, G,,3 |[M:1/4][K:treble] [G,DG]>[G,CG] | %10
[M:4/4] [G,B,G]2 [G,DG]2 [G,DG]2 [G,B,G][G,CG] | [D,B,][D,A,] [D,A,]>[D,^G,] [D,A,]4 | %12
 [D,A,][D,D] [D,D]>[D,D] [D,D]4 | %13
[M:9/8][K:treble] [G,DG][G,DG][G,DG]- [G,DG]/[G,CG]/ [G,B,G]2- [G,B,G][G,DG]>[G,CG] | %14
[M:4/4] [G,B,G]2 [G,DG]2 [G,DG]2 [G,B,D][G,DG] | [C,C][C,C][C,G,][C,G,] [G,,G,]2 [B,,G,]>[B,,G,] | %16
 [C,G,]2 [C,G,][C,G,] [D,G,]2 z F |[M:3/4] G,,6 |] %18
V:3
 x8 | x6[K:bass] x2 | x8 | x8 |[M:9/8] x7[K:treble] x2 |[M:4/4] x6[K:bass] x2 | x8 | x8 | %8
[M:7/8] x7 |[M:1/4][K:treble] x2 |[M:4/4] x8 | x8 | x8 |[M:9/8][K:treble] x9 |[M:4/4] x8 | x8 | %16
 z4 z2 D,2 |[M:3/4] x6 |] %18

